!!!ONB: MCCC : IJB0068_01 : Extracted Monophonic Melody
!!!COM: Bach, Johann Sebastian
!!!OPR: Cello Suite No.6
!!!OMV: 1
!!!SCT: BWV 1012
!!!ODT: 1717///
**kern
*staff1
*IP1
*clefF4
*k[f#c#]
*D:
*M12/8
=1-
8D
8D
8D
8D
8D
8F#
8D
8D
8A
8D
8D
8d
=2
8D
8D
8D
8D
8D
8F#
8D
8D
8A
8D
8D
8d
=3
8B
8D
8G
8B
8c#
8d
8A
8D
8F#
8A
8c#
8d
=4
8B
8D
8G
8B
8c#
8d
8A
8D
8F#
8A
8c#
8d
=5
8G
8E
8F#
8G
8D
8F#
8G
8C#
8F#
8G
8AA
8G
=6
8F#
8D
8E
8F#
8C#
8E
8F#
8BB
8D
8F#
8AA
8D
=7
8E
8GG#
8D
8E
8AA
8C#
8D
8AA
8C#
8D
8GG#
8BB
=8
8C#
8AA
8C#
8E
8F#
8G#
8A
8C#
8E
8G#
8A
8B
=9
8c#
8E
8G#
8A
8c#
8d
8e
8A
8c#
8e
8f#
8g#
=10
8a
8A
8B
8c#
8e
8B
8c#
8a
8e
8c#
8e
8c#
=11
8A
8a
8B
8c#
8e
8B
8c#
8a
8e
8c#
8e
8c#
=12
8A
8A
8A
8A
8A
8c#
8A
8A
8e
8A
8A
8a
=13
8A
8A
8A
8A
8A
8c#
8A
8A
8e
8A
8A
8a
=14
8f#
8A
8d
8f#
8g#
8a
8e
8A
8c#
8e
8g#
8a
=15
8f#
8A
8d
8f#
8g#
8a
8e
8A
8c#
8e
8g#
8a
=16
8d
8B
8c#
8d
8A
8c#
8d
8G#
8c#
8d
8E
8d
=17
8c#
8A
8B
8c#
8G#
8B
8c#
8F#
8A
8c#
8E
8A
=18
8c
8D#
8c
8B
8c
8A
8f#
8A
8c
8B
8c
8A
=19
8G
8E
8G
8B
8c#
8d#
8e
8G
8B
8d#
8e
8f#
=20
8g
8B
8d#
8e
8g
8a
8b
8e
8g
8b
8cc#
8dd#
=21
8ee
8e
8f#
8g
8b
8f#
8g
8ee
8b
8g
8b
8g
=22
8e
8ee
8f#
8g
8b
8f#
8g
8ee
8b
8g
8b
8g
=23
8e
8e
8d#
8e
8e
8f#
8g
8e
8f#
8e
8e
8d#
=24
8e
8e
8d#
8e
8e
8f#
8g
8e
8f#
8e
8e
8d#
=25
8e
8e
8g
8d#
8e
8f#
8e
8e
8g
8d#
8e
8f#
=26
8e
8e
8g
8f#
8e
8a
8g
8e
8e
8f#
8e
8a
=27
8g
8e
8f#
8g
8e
8a
8b
8e
8a
8g
8e
8f#
=28
8g
8e
8f#
8g
8e
8a
8b
8e
8a
8g
8e
8f#
=29
8g
8e
8b
8f#
8e
8a
8g
8e
8b
8f#
8e
8a
=30
8g
8e
8e
8f#
8e
8d#
8e
8e
8g
8f#
8e
8d#
=31
8e
8e
8g
8d
8e
8f#
8c#
8e
8e
8B
8e
8d
=32
8A#
8e
8c#
8A#
8e
8c#
8F#
8g
8f#
8e
8d
8c#
=33
8d
8B
8f#
8d
8B
8f#
8d
8B
8c#
8d
8e
8f#
=34
8G
8B
8d
8f#
8b
8a#
8b
8g
8e
8dd
8cc#
8b
=35
8a#
8e
8cc#
8a#
8e
8cc#
8a#
8e
8f#
8g
8f#
8e
=36
8d
8b
8f#
8d
8b
8f#
8d
8b
8a
8g#
8a
8b
=37
8e#
8d
8c#
8d
8G#
8F#
8G#
8d
8c#
8d
8e#
8d
=38
8c#
8e
8d
8c#
8e
8B
8A#
8B
8c#
8G
8F#
8E
=39
8D
8F#
8B
8A
8G
8F#
8G
8E
8D
8C#
8D
8E
=40
8AA#
8C#
8F#
8E
8D
8C#
8D
8BB
8AA
8GG#
8AA
8BB
=41
8EE#
8BB
8D
8EE#
8BB
8D
8B
8c#
8d
8c#
8A#
8B
=42
8FF#
8BB
8D
8FF#
8BB
8D
8B
8c#
8d
8c#
8A#
8B
=43
8GG
8BB
8E
8B
8c#
8d
8c#
8A#
8B
8e#
8A#
8B
=44
8f#
8c#
8d
8b
8a
8g
8f#
8e
8d
8c
8e
8B
=45
8A#
8G
8F#
8E
8D
8C#
8D
8F#
8B
8F#
8B
8A#
=46
8B
8F#
8E
8D
8F#
8C#
8D
8BB
8D
8F#
8B
8F#
=47
8D
8B
8F#
8D
8F#
8C#
8D
8BB
8D
8F#
8A
8G#
=48
8A
8E
8D
8C#
8E
8BB
8C#
8AA
8C#
8E
8A
8E
=49
8C#
8G
8E
8C#
8E
8BB
8C#
8AA
8C#
8E
8F#
8G
=50
8F#
8A
8G
8F#
8A
8E
8F#
8D
8E
8F#
8A
8B
=51
8c
8A
8G
8F#
8A
8E
8F#
8D
8F#
8A
8B
8c
=52
8B
8G
8A
8B
8d
8A
8B
8g
8d
8B
8d
8A
=53
8B
8G
8A
8B
8d
8A
8B
8g
8d
8B
8G
8D
=54
8GG
8GG
8GG
8GG
8GG
8BB
8GG
8GG
8D
8GG
8GG
8G
=55
8GG
8GG
8GG
8GG
8GG
8BB
8GG
8GG
8D
8GG
8GG
8G
=56
8E
8GG
8C
8E
8F#
8G
8D
8GG
8BB
8D
8F#
8G
=57
8E
8GG
8C
8E
8F#
8G
8D
8GG
8BB
8D
8F#
8G
=58
8C
8AA
8BB
8C
8AA
8GG
8FF#
8AA
8BB
8C
8AA
8FF#
=59
8DD
8FF#
8AA
8C
8D
8F#
8A
8d
8A
8F#
8D
8C
=60
8BB
8GG
8AA
8BB
8D
8AA
8BB
8GG
8AA
8BB
8G
8AA
=61
8BB
8GG
8AA
8BB
8D
8AA
8BB
8GG
8AA
8BB
8G
8E
=62
8C#
8AA
8BB
8C#
8E
8F#
8G
8E
8D
8C#
8E
8BB
=63
8C#
8AA
8BB
8C#
8E
8F#
8G
8A
8B
8c#
8d
8e
=64
8F#
8D
8E
8F#
8A
8E
8F#
8D
8E
8F#
8d
8E
=65
8F#
8D
8E
8F#
8A
8E
8F#
8D
8E
8F#
8d
8B
=66
8G#
8E
8F#
8G#
8B
8c#
8d
8B
8A
8G#
8B
8F#
=67
8G#
8E
8F#
8G#
8B
8c#
8d
8e
8f#
8g#
8a
8b
=68
8c#
8A
8B
8c#
8e
8f#
8g
8e
8d
8c#
8e
8B
=69
8c#
8A
8B
8c#
8e
8f#
8g
8a
8b
8cc#
8dd
8ee
=70
8A
8f#
8dd
8f#
8d
8e
8f#
8dd
8e
8f#
8dd
8d
=71
8A
8g
8ee
8g
8e
8f#
8g
8ee
8f#
8g
8ee
8e
=72
8A
8a
8ff#
8a
8f#
8g
8a
8ff#
8g
8a
8ff#
8f#
=73
8A
8b
8gg
8b
8g
8a
8b
8gg
8a
8b
8gg
8g
=74
8A
8cc#
8gg
8ff#
8ee
8dd
8cc#
8ff#
8ee
8dd
8cc#
8b
=75
8a
8ff#
8ee
8ff#
8g
8f#
8g
8ee
8dd
8ee
8f#
8e
=76
8f#
8dd
8cc#
8dd
8e
8d
8e
8cc#
8b
8cc#
8a
8f#
=77
8d
8b
8a
8b
8g
8e
8c#
8a
8g
8a
8f#
8d
=78
8B
8g
8f#
8g
8e
8c#
8.A
16B
32c#
32d
32e
32f#
8g
8e
8c#
=79
8A
8f#
8e
8f#
8d
8B
8.G
32A
32B
16c#
16d
8e
8c#
8A
=80
8F#
8d
8c#
8d
8B
8G
8.E
32F#
32G
16A
16B
8c#
8A
8F#
=81
8D
8B
8G
8E
8C#
8A
8BB
8G
8E
8C#
8AA
8F#
=82
8GG
8E
8C#
8AA
8FF#
8D
8EE
8GG
8AA
8C#
8E
8F#
=83
8G
8A
8c#
8e
8g
8a
4.cc#[
16cc#]
16b
16a
16g
16f#
16e
=84
16a
16g
16f#
16e
16d
16c#
16f#
16e
16d
16c#
16B
16A
16d
16c#
16B
16A
16G#
16F#
16B
16A
16G#
16F#
16E
16D
=85
16C#
16E
16A
16c#
16e
16a
16e
16c#
16A
16E
16C#
16AA
16C#
16E
16A
16c#
16e
16a
16e
16c#
16A
16E
16C#
16AA
=86
16GG
16E
16A
16c#
16e
16a
16e
16c#
16A
16E
16C#
16AA
16GG
16E
16A
16c#
16e
16a
16e
16c#
16A
16E
16C#
16AA
=87
16FF#
16AA
16BB
16C
16BB
16AA
16DD
16AA
16BB
16C
16BB
16AA
16F#
16A
16B
16c
16B
16A
16f#
16A
16B
16c
16B
16A
=88
16B
16d
16c
16B
16A
16G
16B
16A
16G
16F#
16E
16D
16E
16G
16F#
16E
16D
16C#
16F#
16E
16D
16C#
16BB
16AA
=89
16F
16E
16D
16E
16F
16D
16GG#
16D
16E
16F
16E
16D
16B
16D
16E
16F
16E
16D
16d
16D
16E
16F
16E
16D
=90
8A
8A
8A
8A
8A
8c#
8A
8A
8e
8A
8A
8a
=91
8A
8A
8A
8A
8A
8c#
8A
8A
8e
8A
8A
8a
=92
8D
8D
8D
8D
8D
8F#
8D
8D
8A
8D
8D
8d
=93
8D
8D
8D
8D
8D
8F#
8D
8D
8A
8D
8D
8d
=94
16G#
16A
16B
16c#
16d
16e
16d
16e
16c#
16e
16d
16e
16d
16e
16c#
16e
16d
16e
16d
16e
16c#
16e
16B
16e
=95
16G
16A
16c#
16d
16e
16d
16c#
16e
16B
16e
16c#
16e
16c#
16e
16B
16e
16c#
16e
16c#
16e
16B
16e
16A
16e
=96
8F#
8e
8a
8d
8c#
8B
8E
8d
8g
8c#
8B
8A
=97
8D
8A
8f#
8b
8g#
8a
8a
8f#
8g
8g
8e
8f
=98
8f
8d
8e-
8e-
8c#
8d
8d
8r
8r
8d
8r
8r
=99
8d
8r
8r
8d
8r
8r
8d
8r
8r
8c#
8r
8r
=100
8D
8F#
8A
8d
8A
8F#
8D
8F#
8A
8c
8A
8F#
=101
8D
8G
8B
8d
8B
8d
8g
8d
8g
8b
8g
8e
=102
8c#
8e
8d
8e
8g
8f#
8g
8b
8a
8b
8dd
8cc#
=103
8dd
8a
8f#
8a
8f#
8d
8f#
8d
8A
8d
8A
8F#
=104
8A
8F#
8D
8F#
8D
8AA
8DD
8AA
8F#
4.d
==
*-
